assets/svg/ficon/calculator.svg

<?xml version="1.0" encoding="utf-8"?>
<svg width="1792" height="1792" viewBox="0 0 1792 1792" xmlns="http://www.w3.org/2000/svg"><path d="M384 1536q0-53-37.5-90.5t-90.5-37.5-90.5 37.5-37.5 90.5 37.5 90.5 90.5 37.5 90.5-37.5 37.5-90.5zm384 0q0-53-37.5-90.5t-90.5-37.5-90.5 37.5-37.5 90.5 37.5 90.5 90.5 37.5 90.5-37.5 37.5-90.5zm-384-384q0-53-37.5-90.5t-90.5-37.5-90.5 37.5-37.5 90.5 37.5 90.5 90.5 37.5 90.5-37.5 37.5-90.5zm768 384q0-53-37.5-90.5t-90.5-37.5-90.5 37.5-37.5 90.5 37.5 90.5 90.5 37.5 90.5-37.5 37.5-90.5zm-384-384q0-53-37.5-90.5t-90.5-37.5-90.5 37.5-37.5 90.5 37.5 90.5 90.5 37.5 90.5-37.5 37.5-90.5zm-384-384q0-53-37.5-90.5t-90.5-37.5-90.5 37.5-37.5 90.5 37.5 90.5 90.5 37.5 90.5-37.5 37.5-90.5zm768 384q0-53-37.5-90.5t-90.5-37.5-90.5 37.5-37.5 90.5 37.5 90.5 90.5 37.5 90.5-37.5 37.5-90.5zm-384-384q0-53-37.5-90.5t-90.5-37.5-90.5 37.5-37.5 90.5 37.5 90.5 90.5 37.5 90.5-37.5 37.5-90.5zm768 768v-384q0-52-38-90t-90-38-90 38-38 90v384q0 52 38 90t90 38 90-38 38-90zm-384-768q0-53-37.5-90.5t-90.5-37.5-90.5 37.5-37.5 90.5 37.5 90.5 90.5 37.5 90.5-37.5 37.5-90.5zm384-320v-256q0-26-19-45t-45-19h-1280q-26 0-45 19t-19 45v256q0 26 19 45t45 19h1280q26 0 45-19t19-45zm0 320q0-53-37.5-90.5t-90.5-37.5-90.5 37.5-37.5 90.5 37.5 90.5 90.5 37.5 90.5-37.5 37.5-90.5zm128-640v1536q0 52-38 90t-90 38h-1408q-52 0-90-38t-38-90v-1536q0-52 38-90t90-38h1408q52 0 90 38t38 90z" fill="#60be86"/></svg>

<svg width="1792" height="1792" xmlns="http://www.w3.org/2000/svg"><path d="M384 1536q0-53-37.5-90.5T256 1408t-90.5 37.5T128 1536t37.5 90.5T256 1664t90.5-37.5T384 1536zm384 0q0-53-37.5-90.5T640 1408t-90.5 37.5T512 1536t37.5 90.5T640 1664t90.5-37.5T768 1536zm-384-384q0-53-37.5-90.5T256 1024t-90.5 37.5T128 1152t37.5 90.5T256 1280t90.5-37.5T384 1152zm768 384q0-53-37.5-90.5T1024 1408t-90.5 37.5T896 1536t37.5 90.5 90.5 37.5 90.5-37.5 37.5-90.5zm-384-384q0-53-37.5-90.5T640 1024t-90.5 37.5T512 1152t37.5 90.5T640 1280t90.5-37.5T768 1152zM384 768q0-53-37.5-90.5T256 640t-90.5 37.5T128 768t37.5 90.5T256 896t90.5-37.5T384 768zm768 384q0-53-37.5-90.5T1024 1024t-90.5 37.5T896 1152t37.5 90.5 90.5 37.5 90.5-37.5 37.5-90.5zM768 768q0-53-37.5-90.5T640 640t-90.5 37.5T512 768t37.5 90.5T640 896t90.5-37.5T768 768zm768 768v-384q0-52-38-90t-90-38-90 38-38 90v384q0 52 38 90t90 38 90-38 38-90zm-384-768q0-53-37.5-90.5T1024 640t-90.5 37.5T896 768t37.5 90.5T1024 896t90.5-37.5T1152 768zm384-320V192q0-26-19-45t-45-19H192q-26 0-45 19t-19 45v256q0 26 19 45t45 19h1280q26 0 45-19t19-45zm0 320q0-53-37.5-90.5T1408 640t-90.5 37.5T1280 768t37.5 90.5T1408 896t90.5-37.5T1536 768zm128-640v1536q0 52-38 90t-90 38H128q-52 0-90-38t-38-90V128q0-52 38-90t90-38h1408q52 0 90 38t38 90z" fill="#60be86"/></svg>
